_includes/icons/ios-png.svg

<svg fill="#666" height="50" viewBox="0 0 50 50" width="50" xmlns="http://www.w3.org/2000/svg"><path d="m7 2v46h36v-32.589844l-13.816406-13.410156zm2 2h19v13h13v29h-32zm21 1.578125 9.707031 9.421875h-9.707031zm3.421875 17.886719c-2.144531 0-4.246094 1.53125-4.292969 5.207031-.027343 1.738281.4375 3.238281 1.308594 4.078125.675781.675781 1.546875 1.003906 2.699219 1.003906.734375 0 1.664062-.179687 2.097656-.359375v-5.398437h-2.714844v1.601562h.902344v2.449219c-.074219.027344-.210937.042969-.390625.042969-.914062 0-1.859375-.871094-1.859375-3.300781 0-2.640625 1.0625-3.554688 2.398438-3.554688.492187 0 .871093.078125 1.152343.226563l.347657-1.695313c-.316407-.148437-.882813-.300781-1.648438-.300781zm-16.332031.046875c-.75 0-1.503906.074219-2.058594.191406v9.964844h1.964844v-3.765625h.394531c.808594 0 1.828125-.300781 2.457031-.960938.523438-.570312.855469-1.335937.855469-2.429687 0-.855469-.269531-1.695313-.871094-2.21875-.660156-.617188-1.574218-.78125-2.742187-.78125zm9.070312.042969v2.234375c0 1.859375.136719 3.617187.199219 4.679687h-.03125c-.285156-.867187-.78125-2.171875-1.078125-2.953125l-1.5625-3.957031h-1.796875v10.105469h1.722656v-2.277344c0-2.027344-.074218-3.585938-.121093-4.605469h.03125c.226562.914063.691406 2.1875 1.019531 3.042969l1.546875 3.839844h1.800781v-10.109375zm-8.683593 1.542968c.914062 0 1.273437.691407 1.273437 1.578125 0 .945313-.449219 1.648438-1.4375 1.648438-.121094 0-.226562 0-.316406-.027344v-3.121094c.121094-.046875.300781-.078125.480469-.078125z"/></svg>

<svg xmlns="http://www.w3.org/2000/svg" viewBox="0 0 50 50" width="50" height="50" fill="#666"><path d="M 7 2 L 7 48 L 43 48 L 43 15.410156 L 29.183594 2 Z M 9 4 L 28 4 L 28 17 L 41 17 L 41 46 L 9 46 Z M 30 5.578125 L 39.707031 15 L 30 15 Z M 33.421875 23.464844 C 31.277344 23.464844 29.175781 24.996094 29.128906 28.671875 C 29.101563 30.410156 29.566406 31.910156 30.4375 32.75 C 31.113281 33.425781 31.984375 33.753906 33.136719 33.753906 C 33.871094 33.753906 34.800781 33.574219 35.234375 33.394531 L 35.234375 27.996094 L 32.519531 27.996094 L 32.519531 29.597656 L 33.421875 29.597656 L 33.421875 32.046875 C 33.347656 32.074219 33.210938 32.089844 33.03125 32.089844 C 32.117188 32.089844 31.171875 31.21875 31.171875 28.789063 C 31.171875 26.148438 32.234375 25.234375 33.570313 25.234375 C 34.0625 25.234375 34.441406 25.3125 34.722656 25.460938 L 35.070313 23.765625 C 34.753906 23.617188 34.1875 23.464844 33.421875 23.464844 Z M 17.089844 23.511719 C 16.339844 23.511719 15.585938 23.585938 15.03125 23.703125 L 15.03125 33.667969 L 16.996094 33.667969 L 16.996094 29.902344 L 17.390625 29.902344 C 18.199219 29.902344 19.21875 29.601563 19.847656 28.941406 C 20.371094 28.371094 20.703125 27.605469 20.703125 26.511719 C 20.703125 25.65625 20.433594 24.816406 19.832031 24.292969 C 19.171875 23.675781 18.257813 23.511719 17.089844 23.511719 Z M 26.160156 23.554688 L 26.160156 25.789063 C 26.160156 27.648438 26.296875 29.40625 26.359375 30.46875 L 26.328125 30.46875 C 26.042969 29.601563 25.546875 28.296875 25.25 27.515625 L 23.6875 23.558594 L 21.890625 23.558594 L 21.890625 33.664063 L 23.613281 33.664063 L 23.613281 31.386719 C 23.613281 29.359375 23.539063 27.800781 23.492188 26.78125 L 23.523438 26.78125 C 23.75 27.695313 24.214844 28.96875 24.542969 29.824219 L 26.089844 33.664063 L 27.890625 33.664063 L 27.890625 23.554688 Z M 17.476563 25.097656 C 18.390625 25.097656 18.75 25.789063 18.75 26.675781 C 18.75 27.621094 18.300781 28.324219 17.3125 28.324219 C 17.191406 28.324219 17.085938 28.324219 16.996094 28.296875 L 16.996094 25.175781 C 17.117188 25.128906 17.296875 25.097656 17.476563 25.097656 Z"/></svg>
